img/other-work/Reactome-IDG.svg

<svg width="217" height="67" viewBox="0 0 217 67" fill="none" xmlns="http://www.w3.org/2000/svg">
<g clip-path="url(#clip0_715_1768)">
<path d="M127.801 65.5425C127.265 65.0083 127 64.3477 127 63.5605V27.2827C127 26.4606 127.265 25.7913 127.801 25.2723C128.337 24.7555 128.997 24.4961 129.784 24.4961C130.603 24.4961 131.272 24.7556 131.79 25.2723C132.307 25.7912 132.568 26.4606 132.568 27.2827V63.5605C132.568 64.3477 132.307 65.0083 131.79 65.5425C131.272 66.0789 130.603 66.3471 129.784 66.3471C128.997 66.3471 128.337 66.0789 127.801 65.5425Z" fill="black"/>
<path d="M144.078 65.5425C143.542 65.0083 143.276 64.3477 143.276 63.5605V27.2827C143.276 26.4606 143.542 25.7913 144.078 25.2723C144.614 24.7555 145.274 24.4961 146.06 24.4961H155.75C159.783 24.4961 163.371 25.39 166.513 27.1758C169.652 28.9616 172.099 31.4363 173.846 34.5979C175.595 37.7595 176.471 41.3594 176.471 45.3954C176.471 49.4314 175.595 53.04 173.846 56.219C172.099 59.4003 169.652 61.8816 166.513 63.6674C163.371 65.4553 159.783 66.3471 155.75 66.3471H146.06C145.274 66.3471 144.614 66.0789 144.078 65.5425ZM155.751 61.4171C158.714 61.4171 161.363 60.739 163.7 59.3806C166.038 58.0244 167.859 56.1209 169.162 53.6745C170.465 51.228 171.116 48.4676 171.116 45.3954C171.116 42.3232 170.465 39.5716 169.162 37.1426C167.859 34.7136 166.038 32.8209 163.7 31.4625C161.363 30.1063 158.714 29.426 155.751 29.426H148.844V61.4172L155.751 61.4171Z" fill="black"/>
<path d="M216.063 45.4215C216.579 45.9405 216.841 46.6099 216.841 47.4319V60.2375C216.841 61.0966 216.553 61.7573 215.982 62.2216C212.235 65.3287 207.863 66.8833 202.865 66.8833C199.046 66.8833 195.558 65.9371 192.399 64.0422C189.24 62.1496 186.75 59.5593 184.929 56.2734C183.109 52.9874 182.199 49.3592 182.199 45.3952C182.199 41.4661 183.109 37.8662 184.929 34.5978C186.75 31.3293 189.24 28.739 192.399 26.8267C195.558 24.9167 199.046 23.9595 202.865 23.9595C205.577 23.9595 207.926 24.3171 209.906 25.0322C211.887 25.7474 213.895 26.9271 215.93 28.5689C216.357 28.8894 216.642 29.2209 216.786 29.561C216.928 29.899 217 30.3023 217 30.7668C217 31.4798 216.74 32.0707 216.224 32.5351C215.706 32.9996 215.091 33.2307 214.377 33.2307C213.734 33.2307 213.126 32.9996 212.555 32.5351C211.091 31.2836 209.664 30.3831 208.272 29.827C206.88 29.2754 205.078 28.9985 202.865 28.9985C200.081 28.9985 197.519 29.7311 195.183 31.1942C192.843 32.6594 190.987 34.6502 189.615 37.1685C188.24 39.6869 187.551 42.4299 187.551 45.3952C187.551 48.3955 188.24 51.1472 189.615 53.6459C190.987 56.1469 192.843 58.131 195.183 59.5941C197.519 61.0594 200.081 61.792 202.865 61.792C205.863 61.792 208.736 60.9002 211.486 59.1123V49.5752H204.096C203.275 49.5752 202.606 49.3418 202.089 48.8774C201.571 48.4131 201.312 47.8243 201.312 47.1091C201.312 46.3961 201.571 45.8053 202.089 45.3408C202.606 44.8764 203.275 44.6453 204.096 44.6453H214.109C214.893 44.6453 215.544 44.9048 216.063 45.4215Z" fill="black"/>
<path opacity="0.33" d="M101.824 41.8013L58.4204 16.7207L15.0166 41.8016L30.0858 50.5094L58.4203 34.0589L86.7542 50.5094L101.824 41.8013Z" fill="black"/>
<path opacity="0.66" d="M58.4202 66.8829L86.7543 50.5095L58.4204 34.0591L30.0859 50.5095L58.4202 66.8829Z" fill="black"/>
<path d="M58.4204 16.7207L15.0166 41.8016L58.42 66.8828L101.824 41.8014L58.4204 16.7207ZM58.4204 17.9747L99.6535 41.8014L86.2709 49.5349L58.4203 33.4414L30.5695 49.5349L17.1868 41.8015L58.4204 17.9747ZM71.8029 57.8953L58.4201 50.1621L45.0373 57.8953L31.6547 50.1619L58.4203 34.6954L85.1857 50.1618L71.8029 57.8953Z" fill="black"/>
<path d="M3.4424 35.1132L58.4205 3.34408L113.398 35.1129L116.292 33.4409L58.4205 0L0.548828 33.4412L3.4424 35.1132Z" fill="black"/>
<path d="M132.832 3.80925C132.832 3.87263 132.825 3.9231 132.813 3.9609C132.775 4.10005 132.715 4.19777 132.633 4.25465C132.551 4.31161 132.44 4.33991 132.302 4.33991C132.188 4.33991 132.039 4.32751 131.856 4.3021C131.673 4.27679 131.519 4.26405 131.392 4.26405C130.761 4.26405 130.2 4.39678 129.707 4.66224C129.215 4.92743 128.83 5.29396 128.552 5.76149C128.275 6.22893 128.136 6.75335 128.136 7.33445V13.0961C128.136 13.2604 128.085 13.3963 127.984 13.5034C127.883 13.611 127.744 13.6645 127.568 13.6645C127.403 13.6645 127.268 13.611 127.16 13.5034C127.053 13.3963 127 13.2603 127 13.0961V3.86615C127 3.6892 127.053 3.5505 127.16 3.44906C127.268 3.34816 127.403 3.29744 127.568 3.29744C127.744 3.29744 127.883 3.34816 127.984 3.44906C128.085 3.5505 128.136 3.68911 128.136 3.86615V5.04116C128.502 4.46007 128.969 4.00529 129.537 3.67645C130.105 3.34815 130.723 3.18359 131.392 3.18359C132.352 3.18368 132.832 3.39217 132.832 3.80925Z" fill="black"/>
<path d="M140.927 3.85701C141.652 4.2929 142.217 4.89639 142.621 5.66682C143.025 6.43778 143.227 7.31579 143.227 8.30122C143.227 8.4655 143.177 8.59497 143.076 8.68964C142.975 8.78457 142.842 8.83179 142.678 8.83179H134.744C134.782 9.57762 134.977 10.244 135.331 10.8315C135.684 11.419 136.158 11.877 136.751 12.2053C137.345 12.5341 138.007 12.6982 138.739 12.6982C139.232 12.6982 139.727 12.6129 140.226 12.4425C140.724 12.2718 141.119 12.0476 141.409 11.7694C141.535 11.6685 141.668 11.6178 141.807 11.6178C141.946 11.6178 142.059 11.6559 142.148 11.7316C142.287 11.8452 142.356 11.9779 142.356 12.1296C142.356 12.2561 142.299 12.3761 142.186 12.4897C141.782 12.8563 141.255 13.1595 140.605 13.3995C139.954 13.6396 139.333 13.7596 138.74 13.7596C137.742 13.7596 136.855 13.5354 136.079 13.0866C135.303 12.6382 134.693 12.0129 134.252 11.2105C133.81 10.4083 133.589 9.50185 133.589 8.49084C133.589 7.46743 133.794 6.55451 134.204 5.75208C134.614 4.95001 135.189 4.32452 135.927 3.87588C136.666 3.42752 137.509 3.20312 138.455 3.20312C139.377 3.20312 140.201 3.42112 140.927 3.85701ZM135.965 5.25009C135.29 5.90722 134.889 6.77258 134.763 7.84653H142.129C142.041 6.77258 141.662 5.90722 140.993 5.25009C140.324 4.59323 139.478 4.26441 138.456 4.26441C137.471 4.26441 136.641 4.59323 135.965 5.25009Z" fill="black"/>
<path d="M152.733 3.87561C153.541 4.3369 154.175 4.9719 154.636 5.78039C155.097 6.58915 155.327 7.49247 155.327 8.49065V13.0962C155.327 13.2605 155.277 13.3964 155.176 13.5035C155.075 13.6111 154.936 13.6645 154.759 13.6645C154.595 13.6645 154.459 13.6111 154.352 13.5035C154.245 13.3964 154.191 13.2604 154.191 13.0962V11.6176C153.775 12.2877 153.203 12.815 152.477 13.2002C151.751 13.5857 150.94 13.7784 150.044 13.7784C149.047 13.7784 148.144 13.548 147.336 13.0864C146.528 12.6254 145.894 11.9907 145.433 11.1816C144.973 10.3734 144.742 9.47599 144.742 8.49056C144.742 7.49248 144.973 6.58904 145.433 5.78028C145.894 4.97179 146.529 4.33682 147.336 3.87553C148.144 3.4145 149.047 3.18359 150.044 3.18359C151.029 3.18377 151.925 3.41459 152.733 3.87561ZM152.165 12.1674C152.796 11.8011 153.292 11.2956 153.651 10.6511C154.011 10.0067 154.191 9.28666 154.191 8.49065C154.191 7.69464 154.011 6.97439 153.651 6.32992C153.292 5.68572 152.796 5.17723 152.165 4.80445C151.534 4.43194 150.827 4.24524 150.044 4.24524C149.261 4.24524 148.554 4.43185 147.923 4.80445C147.292 5.17723 146.793 5.68572 146.427 6.32992C146.061 6.97439 145.878 7.69464 145.878 8.49065C145.878 9.28675 146.061 10.0067 146.427 10.6511C146.793 11.2956 147.292 11.8011 147.923 12.1674C148.554 12.534 149.261 12.717 150.044 12.717C150.827 12.7169 151.534 12.534 152.165 12.1674Z" fill="black"/>
<path d="M160.118 13.0863C159.335 12.6253 158.72 11.9906 158.272 11.1815C157.823 10.3733 157.599 9.47589 157.599 8.49046C157.599 7.49237 157.808 6.59221 158.224 5.78969C158.641 4.98745 159.221 4.35589 159.966 3.89432C160.711 3.4333 161.544 3.20264 162.466 3.20264C163.274 3.20264 164.012 3.3607 164.681 3.67634C165.35 3.99243 165.931 4.45995 166.423 5.07875C166.512 5.20524 166.556 5.31284 166.556 5.40108C166.556 5.57802 166.467 5.71699 166.291 5.81789C166.202 5.89375 166.101 5.93171 165.988 5.93171C165.811 5.93171 165.666 5.85595 165.552 5.70432C164.744 4.74421 163.716 4.26384 162.466 4.26384C161.734 4.26384 161.083 4.44403 160.515 4.80415C159.947 5.164 159.509 5.66636 159.199 6.31075C158.89 6.95522 158.736 7.68189 158.736 8.49038C158.736 9.28648 158.906 10.0064 159.247 10.6508C159.588 11.2953 160.061 11.8008 160.667 12.1672C161.273 12.5337 161.967 12.7167 162.75 12.7167C163.861 12.7167 164.751 12.4073 165.42 11.7882C165.534 11.6744 165.666 11.6175 165.818 11.6175C165.956 11.6175 166.07 11.662 166.158 11.7503C166.284 11.8641 166.348 12.0032 166.348 12.1673C166.348 12.3065 166.297 12.42 166.196 12.5083C165.754 12.9129 165.237 13.2256 164.644 13.4465C164.05 13.6675 163.419 13.7783 162.75 13.7783C161.778 13.7782 160.9 13.5479 160.118 13.0863Z" fill="black"/>
<path d="M174.499 12.6698C174.606 12.7771 174.66 12.9193 174.66 13.0963C174.66 13.2606 174.606 13.3965 174.499 13.5036C174.392 13.6112 174.25 13.6646 174.073 13.6646H173.637C172.943 13.6646 172.324 13.5069 171.782 13.191C171.239 12.8753 170.816 12.4424 170.513 11.8927C170.21 11.3431 170.059 10.7208 170.059 10.026V4.70022H168.582C168.43 4.70022 168.307 4.65272 168.212 4.55806C168.118 4.4634 168.07 4.34009 168.07 4.18846C168.07 4.03684 168.118 3.91359 168.212 3.81883C168.307 3.72408 168.43 3.67671 168.582 3.67671H170.059V0.587523C170.059 0.410853 170.112 0.268622 170.219 0.161029C170.327 0.0538876 170.463 0 170.627 0C170.803 0 170.945 0.0538876 171.053 0.161029C171.16 0.268622 171.214 0.410763 171.214 0.587523V3.67671H173.713C173.865 3.67671 173.988 3.72417 174.083 3.81883C174.177 3.9135 174.224 4.03684 174.224 4.18846C174.224 4.34009 174.177 4.4633 174.083 4.55806C173.988 4.65281 173.865 4.70022 173.713 4.70022H171.214V10.026C171.214 10.7589 171.441 11.3559 171.895 11.8169C172.35 12.2782 172.937 12.5086 173.656 12.5086H174.073C174.25 12.5085 174.392 12.5624 174.499 12.6698Z" fill="black"/>
<path d="M179.053 13.0864C178.245 12.6254 177.611 11.9907 177.15 11.1816C176.689 10.3734 176.459 9.47599 176.459 8.49056C176.459 7.49248 176.689 6.58904 177.15 5.78028C177.611 4.97179 178.245 4.33682 179.053 3.87553C179.861 3.4145 180.764 3.18359 181.761 3.18359C182.746 3.18359 183.642 3.41441 184.45 3.87553C185.258 4.33682 185.892 4.97179 186.353 5.78028C186.814 6.58904 187.044 7.49239 187.044 8.49056C187.044 9.47599 186.814 10.3734 186.353 11.1816C185.892 11.9906 185.258 12.6254 184.45 13.0864C183.642 13.548 182.746 13.7784 181.761 13.7784C180.764 13.7784 179.861 13.548 179.053 13.0864ZM183.882 12.1674C184.513 11.8011 185.009 11.2956 185.368 10.6511C185.728 10.0067 185.908 9.28666 185.908 8.49065C185.908 7.69464 185.728 6.97439 185.368 6.32992C185.009 5.68572 184.513 5.17723 183.882 4.80445C183.251 4.43194 182.544 4.24524 181.761 4.24524C180.978 4.24524 180.271 4.43185 179.64 4.80445C179.009 5.17723 178.51 5.68572 178.144 6.32992C177.778 6.97439 177.595 7.69464 177.595 8.49065C177.595 9.28675 177.778 10.0067 178.144 10.6511C178.51 11.2956 179.009 11.8011 179.64 12.1674C180.271 12.534 180.978 12.717 181.761 12.717C182.544 12.7169 183.251 12.534 183.882 12.1674Z" fill="black"/>
<path d="M202.836 3.73355C203.429 4.11257 203.89 4.64015 204.218 5.316C204.546 5.9923 204.711 6.75974 204.711 7.61885V13.0963C204.711 13.2605 204.66 13.3964 204.559 13.5036C204.458 13.6112 204.319 13.6646 204.143 13.6646C203.978 13.6646 203.842 13.6112 203.735 13.5036C203.628 13.3964 203.574 13.2605 203.574 13.0963V7.61885C203.574 6.64608 203.315 5.85008 202.798 5.23074C202.28 4.61194 201.617 4.30226 200.81 4.30226C199.926 4.30226 199.213 4.59305 198.67 5.17415C198.127 5.75542 197.868 6.52611 197.894 7.48622V7.61894V13.0963C197.894 13.2606 197.843 13.3965 197.742 13.5037C197.641 13.6113 197.502 13.6647 197.326 13.6647C197.161 13.6647 197.026 13.6113 196.918 13.5037C196.811 13.3965 196.757 13.2605 196.757 13.0963V7.61894C196.757 6.64617 196.498 5.85016 195.981 5.23082C195.463 4.61202 194.8 4.30237 193.993 4.30237C193.122 4.30237 192.409 4.58046 191.853 5.13615C191.297 5.69238 191.02 6.41262 191.02 7.2966V13.0963C191.02 13.2606 190.969 13.3965 190.869 13.5037C190.767 13.6113 190.628 13.6647 190.452 13.6647C190.288 13.6647 190.152 13.6113 190.045 13.5037C189.937 13.3965 189.884 13.2605 189.884 13.0963V3.86638C189.884 3.68944 189.937 3.55074 190.045 3.4493C190.152 3.34839 190.288 3.29768 190.452 3.29768C190.628 3.29768 190.767 3.34839 190.869 3.4493C190.969 3.55074 191.02 3.68935 191.02 3.86638V4.60552C191.373 4.15074 191.809 3.79703 192.327 3.54405C192.844 3.29152 193.399 3.16504 193.993 3.16504C194.725 3.16504 195.381 3.34523 195.962 3.70535C196.543 4.0652 197.003 4.56129 197.344 5.19302C197.685 4.56129 198.159 4.0652 198.765 3.70535C199.371 3.34523 200.052 3.16504 200.81 3.16504C201.567 3.16495 202.243 3.35453 202.836 3.73355Z" fill="black"/>
<path d="M214.699 3.85701C215.425 4.2929 215.99 4.89639 216.394 5.66682C216.798 6.43778 217 7.31579 217 8.30122C217 8.4655 216.949 8.59497 216.848 8.68964C216.747 8.78457 216.615 8.83179 216.45 8.83179H208.516C208.554 9.57762 208.75 10.244 209.103 10.8315C209.457 11.419 209.93 11.877 210.524 12.2053C211.117 12.5341 211.78 12.6982 212.512 12.6982C213.004 12.6982 213.5 12.6129 213.998 12.4425C214.497 12.2718 214.891 12.0476 215.182 11.7694C215.308 11.6685 215.441 11.6178 215.58 11.6178C215.718 11.6178 215.832 11.6559 215.92 11.7316C216.059 11.8452 216.129 11.9779 216.129 12.1296C216.129 12.2561 216.072 12.3761 215.958 12.4897C215.554 12.8563 215.027 13.1595 214.377 13.3995C213.727 13.6396 213.105 13.7596 212.512 13.7596C211.515 13.7596 210.628 13.5354 209.851 13.0866C209.075 12.6382 208.466 12.0129 208.024 11.2105C207.582 10.4083 207.361 9.50185 207.361 8.49084C207.361 7.46743 207.566 6.55451 207.977 5.75208C208.387 4.95001 208.961 4.32452 209.7 3.87588C210.438 3.42752 211.281 3.20312 212.228 3.20312C213.149 3.20312 213.973 3.42112 214.699 3.85701ZM209.738 5.25009C209.063 5.90722 208.661 6.77258 208.536 7.84653H215.902C215.813 6.77258 215.435 5.90722 214.765 5.25009C214.096 4.59323 213.251 4.26441 212.228 4.26441C211.243 4.26441 210.413 4.59323 209.738 5.25009Z" fill="black"/>
</g>
<defs>
<clipPath id="clip0_715_1768">
<rect width="216.451" height="66.8832" fill="white" transform="translate(0.548828)"/>
</clipPath>
</defs>
</svg>

<?xml version="1.0" encoding="utf-8"?>
<!-- Generator: Adobe Illustrator 27.0.0, SVG Export Plug-In . SVG Version: 6.00 Build 0)  -->
<svg version="1.1" id="Layer_1" xmlns="http://www.w3.org/2000/svg" xmlns:xlink="http://www.w3.org/1999/xlink" x="0px" y="0px"
	 viewBox="0 0 217 67" style="enable-background:new 0 0 217 67;" xml:space="preserve">
<style type="text/css">
	.st0{opacity:0.33;enable-background:new    ;}
	.st1{opacity:0.66;enable-background:new    ;}
</style>
<g>
	<path class="st0" d="M101.8,41.8L58.4,16.7L15,41.8l15.1,8.7l28.3-16.5l28.3,16.5L101.8,41.8z"/>
	<path class="st1" d="M58.4,66.9l28.3-16.4L58.4,34.1L30.1,50.5L58.4,66.9z"/>
	<path d="M58.4,16.7L15,41.8l43.4,25.1l43.4-25.1L58.4,16.7z M58.4,18l41.2,23.8l-13.4,7.7L58.4,33.4L30.6,49.5l-13.4-7.7L58.4,18z
		 M71.8,57.9l-13.4-7.7L45,57.9l-13.4-7.7l26.8-15.5l26.8,15.5L71.8,57.9z"/>
	<path d="M3.4,35.1l55-31.8l55,31.8l2.9-1.7L58.4,0L0.5,33.4L3.4,35.1z"/>
</g>
</svg>
